weblate_web/static/img/icon-twitter.svg

<svg width="20.92" height="17" version="1.1" viewBox="0 0 20.92 17" xmlns="http://www.w3.org/2000/svg"><path d="m20.92 2c-0.77 0.35-1.6 0.58-2.46 0.69 0.88-0.53 1.56-1.37 1.88-2.38-0.83 0.5-1.75 0.85-2.72 1.05-0.79-0.86-1.9-1.36-3.16-1.36-2.35 0-4.27 1.92-4.27 4.29 0 0.34 0.04 0.67 0.11 0.98-3.56-0.18-6.73-1.89-8.84-4.48-0.37 0.63-0.58 1.37-0.58 2.15 0 1.49 0.75 2.81 1.91 3.56-0.71 0-1.37-0.2-1.95-0.5v0.03c0 2.08 1.48 3.82 3.44 4.21-0.36 0.1-0.74 0.15-1.13 0.15-0.27 0-0.54-0.03-0.8-0.08 0.54 1.69 2.11 2.95 4 2.98-1.46 1.16-3.31 1.84-5.33 1.84-0.34 0-0.68-0.02-1.02-0.06 1.9 1.22 4.16 1.93 6.58 1.93 7.88 0 12.21-6.54 12.21-12.21 0-0.19 0-0.37-0.01-0.56 0.84-0.6 1.56-1.36 2.14-2.23z" fill="#fff"/></svg>

<svg xmlns="http://www.w3.org/2000/svg" xmlns:svg="http://www.w3.org/2000/svg" id="svg4" width="20.92" height="17" version="1.1" viewBox="0 0 20.92 17"><metadata id="metadata10"/><path id="path2" fill="#fff" d="M 20.92,2 C 20.15,2.35 19.32,2.58 18.46,2.69 19.34,2.16 20.02,1.32 20.34,0.31 19.51,0.81 18.59,1.16 17.62,1.36 16.83,0.5 15.72,0 14.46,0 c -2.35,0 -4.27,1.92 -4.27,4.29 0,0.34 0.04,0.67 0.11,0.98 C 6.74,5.09 3.57,3.38 1.46,0.79 1.09,1.42 0.88,2.16 0.88,2.94 0.88,4.43 1.63,5.75 2.79,6.5 2.08,6.5 1.42,6.3 0.84,6 c 0,0 0,0 0,0.03 0,2.08 1.48,3.82 3.44,4.21 -0.36,0.1 -0.74,0.15 -1.13,0.15 -0.27,0 -0.54,-0.03 -0.8,-0.08 0.54,1.69 2.11,2.95 4,2.98 C 4.89,14.45 3.04,15.13 1.02,15.13 0.68,15.13 0.34,15.11 0,15.07 1.9,16.29 4.16,17 6.58,17 c 7.88,0 12.21,-6.54 12.21,-12.21 0,-0.19 0,-0.37 -0.01,-0.56 0.84,-0.6 1.56,-1.36 2.14,-2.23 z"/></svg>
